public/topics/3.svg

<svg width="250" height="250" viewBox="0 0 250 250" fill="none" xmlns="http://www.w3.org/2000/svg">
<rect width="250" height="250" rx="30" fill="#FFBB00"/>
<path d="M134 115C144.933 117.4 154 122.133 161.2 129.2C168.4 136.267 172 144.467 172 153.8C172 159.4 170.667 164.867 168 170.2C163.733 178.733 157.333 185.133 148.8 189.4C140.4 193.667 130.667 195.8 119.6 195.8C112.667 195.8 106.467 194.533 101 192C95.5333 189.333 90.1333 185.8 84.8 181.4C82.8 179.533 81 176.867 79.4 173.4C77.9333 169.933 77.2 167.067 77.2 164.8C77.2 161.867 78 159.533 79.6 157.8C81.3333 155.933 83.6 155 86.4 155C89.2 155 91.4 155.667 93 157C94.6 158.333 96.5333 160.467 98.8 163.4C100.933 166.2 102.867 168.467 104.6 170.2C106.333 171.8 108.667 173.2 111.6 174.4C114.533 175.6 118.2 176.2 122.6 176.2C131.533 176.2 138.533 174 143.6 169.6C148.667 165.2 151.2 159 151.2 151C151.2 147.933 149.533 144.867 146.2 141.8C142.867 138.6 139.733 136.333 136.8 135C135.067 134.067 131.867 133.133 127.2 132.2C120.933 130.6 116.2 129.067 113 127.6C109.933 126 108.4 123.533 108.4 120.2C108.4 117.933 109.4 115.733 111.4 113.6C113.4 111.333 116.4 108.533 120.4 105.2C124.4 101.867 127.4 99.1333 129.4 97C131.4 94.7333 132.4 92.4667 132.4 90.2C129.867 89.5333 126.067 89.2 121 89.2C118.733 89.2 115.333 89.3333 110.8 89.6C106.8 89.8667 103.733 90 101.6 90C96.8 90 92.6667 89.2 89.2 87.6C85.8667 86 84.2 83.9333 84.2 81.4C84.2 78.6 84.4667 76.4 85 74.8C85.5333 73.0667 86.5333 72 88 71.6C88.9333 71.2 90.6 71 93 71C99.5333 71 105.2 71.2 110 71.6C115.333 71.8667 119.4 72 122.2 72L138.8 71.8C152.4 71.8 159.2 75.0667 159.2 81.6C159.2 86.5333 156.667 92.1333 151.6 98.4C146.667 104.533 140.8 110.067 134 115Z" fill="white"/>
</svg>

<svg xmlns="http://www.w3.org/2000/svg" width="250" height="250" fill="none" viewBox="0 0 250 250"><rect width="250" height="250" fill="#fb0" rx="30"/><path fill="#fff" d="M134 115q16.4 3.6 27.2 14.2t10.8 24.6q0 8.4-4 16.4-6.4 12.8-19.2 19.2-12.6 6.4-29.2 6.4-10.4 0-18.6-3.8-8.2-4-16.2-10.6-3-2.8-5.4-8-2.2-5.2-2.2-8.6 0-4.4 2.4-7 2.6-2.8 6.8-2.8t6.6 2 5.8 6.4q3.2 4.2 5.8 6.8 2.6 2.4 7 4.2t11 1.8q13.4 0 21-6.6t7.6-18.6q0-4.6-5-9.2-5-4.8-9.4-6.8-2.6-1.4-9.6-2.8-9.4-2.4-14.2-4.6-4.6-2.4-4.6-7.4 0-3.4 3-6.6 3-3.4 9-8.4t9-8.2q3-3.4 3-6.8-3.8-1-11.4-1-3.4 0-10.2.4-6 .4-9.2.4-7.2 0-12.4-2.4-5-2.4-5-6.2 0-4.2.8-6.6.8-2.6 3-3.2 1.4-.6 5-.6 9.8 0 17 .6 8 .4 12.2.4l16.6-.2q20.4 0 20.4 9.8 0 7.4-7.6 16.8-7.4 9.2-17.6 16.6"/></svg>
